build/img/heart.svg

<svg width="37" height="32" viewBox="0 0 37 32" fill="none" xmlns="http://www.w3.org/2000/svg">
<path d="M36.9784 10.5514C36.9784 10.4432 36.9137 7.89189 35.5753 5.34054C34.3232 2.8973 31.668 0 26.2065 0H26.1634C25.5158 0 22.2777 0.151351 18.4784 3.02703C14.7007 0.151351 11.4627 0 10.8151 0H10.7719C5.33197 0 2.67678 2.8973 1.40315 5.34054C0.0647608 7.91351 0 10.4432 0 10.5514V10.6162C0.151109 17.9243 5.43991 22.5081 5.95799 22.9405C10.556 27.1351 17.5286 31.4162 17.8308 31.5892L18.5 32L19.1692 31.5892C19.4714 31.4162 26.4224 27.1351 31.042 22.9405C31.5601 22.5081 36.8489 17.9243 37 10.6162V10.5946L36.9784 10.5514ZM29.3798 20.9514L29.3151 20.9946C25.71 24.2811 20.3565 27.7622 18.5 28.9513C16.6219 27.7622 11.29 24.2811 7.68495 20.9946L7.64177 20.9514C7.57701 20.9081 2.74154 16.8649 2.59043 10.5946C2.61202 10.0108 3.04376 2.59459 10.7719 2.59459H10.8151C10.9446 2.59459 14.0747 2.63784 17.6581 5.68649L18.5 6.4L19.3419 5.68649C22.9253 2.63784 26.0554 2.59459 26.1634 2.59459H26.2065C33.9562 2.59459 34.3664 10.0324 34.388 10.5946C34.2585 16.8649 29.423 20.9081 29.3798 20.9514Z" fill="white"/>
<path d="M10.2322 3.80541C10.0811 3.80541 6.69195 3.67568 5.35356 6.61622C5.20245 6.94054 5.35356 7.32973 5.67736 7.48108C5.76371 7.52432 5.85006 7.54595 5.93641 7.54595C6.17386 7.54595 6.41132 7.39459 6.51925 7.15676C7.49067 5.01622 10.0379 5.1027 10.1459 5.1027C10.4913 5.12432 10.7935 4.84324 10.8151 4.47568C10.8582 4.12973 10.5776 3.82703 10.2322 3.80541Z" fill="white"/>
</svg>

<svg width="37" height="32" fill="none" xmlns="http://www.w3.org/2000/svg"><path d="M36.978 10.551c0-.108-.064-2.66-1.403-5.21C34.323 2.897 31.668 0 26.206 0h-.043c-.647 0-3.885.151-7.685 3.027C14.701.151 11.463 0 10.815 0h-.043c-5.44 0-8.095 2.897-9.369 5.34C.065 7.915 0 10.444 0 10.552v.065c.151 7.308 5.44 11.892 5.958 12.325 4.598 4.194 11.57 8.475 11.873 8.648l.669.41.67-.41c.301-.174 7.252-4.455 11.872-8.65.518-.432 5.807-5.016 5.958-12.324v-.021l-.022-.044zm-7.598 10.4l-.065.044C25.71 24.28 20.356 27.762 18.5 28.95c-1.878-1.189-7.21-4.67-10.815-7.956l-.043-.044c-.065-.043-4.9-4.086-5.052-10.356.022-.584.454-8 8.182-8h.043c.13 0 3.26.043 6.843 3.091l.842.714.842-.714c3.583-3.048 6.713-3.091 6.821-3.091h.043c7.75 0 8.16 7.437 8.182 8-.13 6.27-4.965 10.313-5.008 10.356z" fill="#fff"/><path d="M10.232 3.805c-.15 0-3.54-.13-4.878 2.811a.657.657 0 00.323.865.574.574 0 00.26.065.657.657 0 00.582-.39c.972-2.14 3.519-2.053 3.627-2.053.345.021.647-.26.67-.627.042-.346-.238-.649-.584-.67z" fill="#fff"/></svg>
